X:1
T:Colomiers, 76.76.76.76 D
T:Colomiers, 76.76.76.76 D
T:Daniel Brink Towner, 1891
T:Public Domain Courtesy of the Cyber Hymnal™
C:Daniel Brink Towner, 1891
Z:Public Domain
Z:Courtesy of the Cyber Hymnal™
%%score ( 1 2 ) ( 3 4 )
L:1/8
Q:1/4=128
M:4/2
K:G
V:1 treble 
V:2 treble 
V:3 bass 
V:4 bass 
V:1
 D2 D2 | [DG]4 [DG]3 [DA] [DG]2 [DF]2 [CE]2 [B,D]2 | [DA]4 [FA]2 [FB]2 G4 G2 [GA]2 | %3
 [GB]4 [GB]3 [GB] [GB]2 [EA]2 [DG]2 [GB]2 | [FA]4 [EA]2 E2 [FA]4 D2 D2 | %5
 [DG]4 [DG]3 [DA] [DG]2 [DF]2 [CE]2 [B,D]2 | [DB]4 [^DB]2 [Dc]2 [EB]4 [GB]2 [Gc]2 | %7
 (d B3) (A2 G2) [CE] !fermata![EG]3 [EG]2 [EA]2 | [DB]4 [FA]3 [FA] !fermata!G4 [GB]2 [Ac]2 | %9
 [Bd]4 [Gd]3 [Ge] [Gd]2 [GB]2 [GA]2 [DG]2 | [EG]4 [EG]2 [CE]2 [EG]4 [EG]2 [EA]2 | %11
 [DB]4 [GB]3 [GB] [GB]2 [GA]2 [DG]2 [GB]2 | [FA]4 [FA]3 [GB] [FA]4 [GB]2 [Ac]2 | %13
 [Bd]4 [Gd]3 [Ge] [Gd]2 [GB]2 [DA]2 [DG]2 | [EG]4 [EG]2 [CE]2 [EG]4 [DF]2 [CE]2 | %15
 [B,D]4 [DG]2 [FA]2 [GB] [Gd]3 [GB]2 [DG]2 | [FA]4 [FB]3 [FA] !fermata!G4 |] %17
V:2
 D2 D2 | x16 | x8 G4 G2 x2 | x16 | x6 E2 x2 D2 D2 x2 | x16 | x16 | G4 D4 x8 | x8 G4 x4 | x16 | %10
 x16 | x16 | x16 | x16 | x16 | x16 | x8 G4 |] %17
V:3
 [G,B,]2 [G,B,]2 | [G,B,]4 [G,B,]3 [G,C] [G,B,]2 [G,A,]2 G,2 G,2 | %2
 [D,C]4 [D,C]2 [D,D]2 [G,B,]4 [G,B,]2 [G,C]2 | [G,D]4 [G,D]3 [G,D] [E,D]2 [E,^C]2 [E,B,]2 [E,D]2 | %4
 [A,D]4 [A,^C]2 [A,C]2 [D,D]4 [E,=C]2 [G,C]2 | [G,B,]4 [G,B,]3 [G,C] [G,B,]2 [G,A,]2 G,2 G,2 | %6
 (G,2 B,2) [F,A,]2 [F,A,]2 [G,B,]4 [E,G,]2 [E,G,]2 | %7
 (G, D3) (B,2 G,2) [C,G,] !fermata![C,C]3 [C,C]2 [C,C]2 | %8
 [D,G,]4 [D,C]3 [D,C] !fermata![G,,G,B,]4 G,2 G,2 | %9
 G,4 [G,B,]3 [G,C] [G,B,]2 [G,D]2 [G,C]2 [G,B,]2 | [C,C]4 [C,C]2 [C,G,]2 [C,C]4 [C,C]2 [C,C]2 | %11
 [G,B,]4 [G,D]3 [G,D] [G,D]2 [G,C]2 [G,B,]2 [G,D]2 | [D,D]4 [D,D]3 [D,D] [D,D]4 G,2 G,2 | %13
 G,4 [G,B,]3 [G,C] [G,B,]2 [G,D]2 [F,C]2 [G,B,]2 | [C,C]4 [C,C]2 [C,G,]2 [C,C]4 [C,G,]2 [C,G,]2 | %15
 [G,,G,]4 [G,,B,]2 [D,C]2 [G,D] [G,B,]3 [G,D]2 [G,B,]2 | [D,C]4 [D,D]3 [D,C] !fermata![G,,G,B,]4 |] %17
V:4
 x4 | x12 G,2 G,2 | x16 | x16 | x16 | x12 G,2 G,2 | G,4 x12 | B,,4 B,,4 x8 | x12 G,2 G,2 | %9
 G,4 x12 | x16 | x16 | x12 G,2 G,2 | G,4 x12 | x16 | x16 | x12 |] %17

